packages/core/src/svg/ui/history.svg

<svg width="24" height="24" viewBox="0 0 24 24" fill="none" xmlns="http://www.w3.org/2000/svg">
<path d="M4 9V3H6L5.99882 5.29274C7.59123 3.86699 9.69437 3 12 3C16.9706 3 21 7.02944 21 12C21 16.9706 16.9706 21 12 21C7.02944 21 3 16.9706 3 12H5C5 15.866 8.13401 19 12 19C15.866 19 19 15.866 19 12C19 8.13401 15.866 5 12 5C10.0926 5 8.36334 5.76291 7.10078 7.00023L9.5 7V9H4Z" fill="currentColor"/>
<path d="M13 7L13.0006 11.584L16.2426 14.8284L14.8284 16.2426L11.0007 12.4138L11 7H13Z" fill="currentColor"/>
</svg>

<svg xmlns="http://www.w3.org/2000/svg" viewBox="0 0 24 24"><g fill="none" fill-rule="evenodd"><path d="M0 0h24v24H0z"/><path d="M4 9V3h2l-.001 2.293A9 9 0 113 12h2a7 7 0 102.1-5h2.4v2H4z" fill="currentColor"/><path d="M13 7v4.584l3.243 3.244-1.415 1.415-3.827-3.83L11 7h2z" fill="currentColor"/></g></svg>
